brandFactory_export/2.Regular/Flechas Izquierda y Derecha_2Regular.svg

<?xml version="1.0" encoding="UTF-8"?>
<svg width="24px" height="24px" viewBox="0 0 24 24" version="1.1" xmlns="http://www.w3.org/2000/svg" xmlns:xlink="http://www.w3.org/1999/xlink">
    <title>2.Regular/Flechas Izquierda y Derecha_2Regular</title>
    <g id="Symbols" stroke="none" stroke-width="1" fill="none" fill-rule="evenodd">
        <g id="2.Regular/Flechas-Izquierda-y-Derecha_2Regular" fill="#5CB615" fill-rule="nonzero">
            <path d="M17.6840336,11.8789916 C17.5462185,11.8789916 17.4084034,11.8487395 17.2773109,11.7882353 C16.9546218,11.6336134 16.7563025,11.3210084 16.7529412,10.9714286 L16.7361345,8.78319328 L13.2537815,8.78991597 C12.4571429,8.78991597 11.8117647,8.14453782 11.8117647,7.34789916 L11.8117647,4.56470588 C11.8117647,3.76806723 12.4571429,3.12268908 13.2537815,3.12268908 L16.7394958,3.11932773 L16.7563025,0.931092437 C16.7563025,0.578151261 16.9579832,0.265546218 17.2806723,0.11092437 C17.6067227,-0.043697479 18,0.00336134454 18.2789916,0.231932773 C18.2957983,0.245378151 18.312605,0.258823529 18.3260504,0.275630252 L23.3781513,5.2907563 C23.7344538,5.60672269 23.7882353,6.1512605 23.4890756,6.53109244 C23.4554622,6.57478992 23.4184874,6.61176471 23.3781513,6.6487395 L18.3260504,11.6268908 C18.3092437,11.6436975 18.292437,11.6571429 18.2756303,11.6705882 C18.107563,11.8084034 17.8957983,11.8789916 17.6840336,11.8789916 Z M17.1596639,7.43529412 C17.6537815,7.43529412 18.0638655,7.83193277 18.0806723,8.32941176 L18.0806723,8.34285714 L18.0941176,9.96638655 L22.1546218,5.95966387 L18.0941176,1.92941176 L18.0806723,3.54957983 L18.0806723,3.56302521 C18.0638655,4.0605042 17.6537815,4.45714286 17.1596639,4.45714286 L17.1462185,4.45714286 L13.2571429,4.4605042 C13.2033613,4.4605042 13.1596639,4.50420168 13.1596639,4.55798319 L13.1596639,7.34117647 C13.1596639,7.39495798 13.2033613,7.43865546 13.2571429,7.43865546 L17.1462185,7.43193277 C17.1495798,7.43529412 17.1529412,7.43529412 17.1596639,7.43529412 L17.1596639,7.43529412 Z M6.01680672,19.7344538 C5.80168067,19.7344538 5.59327731,19.6638655 5.42184874,19.5226891 C5.40504202,19.5092437 5.38823529,19.4957983 5.37478992,19.4789916 L0.32605042,14.4705882 C-0.0302521008,14.1546218 -0.0840336134,13.610084 0.21512605,13.2336134 C0.248739496,13.189916 0.285714286,13.1495798 0.32605042,13.1159664 L5.37815126,8.13109244 C5.39495798,8.11428571 5.41176471,8.10084034 5.42857143,8.08739496 C5.70756303,7.86218487 6.10084034,7.81512605 6.42689076,7.9697479 C6.74957983,8.12436975 6.94789916,8.43697479 6.9512605,8.78655462 L6.96806723,10.9714286 L10.4504202,10.9647059 C11.2470588,10.9647059 11.892437,11.610084 11.892437,12.4067227 L11.892437,15.189916 C11.892437,15.9865546 11.2470588,16.6319328 10.4504202,16.6319328 L6.96134454,16.6386555 L6.94453782,18.8268908 C6.94453782,19.1798319 6.74285714,19.492437 6.42016807,19.6470588 C6.29243697,19.7042017 6.15462185,19.7344538 6.01680672,19.7344538 L6.01680672,19.7344538 Z M1.55294118,13.794958 L5.60672269,17.8184874 L5.62016807,16.2016807 L5.62016807,16.1882353 C5.63697479,15.6840336 6.05378151,15.287395 6.55462185,15.2941176 L10.4403361,15.2907563 C10.4941176,15.2907563 10.5378151,15.2470588 10.5378151,15.1932773 L10.5378151,12.410084 C10.5378151,12.3563025 10.4941176,12.312605 10.4403361,12.312605 L6.55462185,12.3193277 C6.05378151,12.3260504 5.63361345,11.9294118 5.62016807,11.4252101 L5.62016807,11.4117647 L5.60672269,9.79159664 L1.55294118,13.794958 Z" id="Flechas-Izquierda-y-Derecha_2Regular"></path>
        </g>
    </g>
</svg>

<svg width="24" height="24" viewBox="0 0 24 24" xmlns="http://www.w3.org/2000/svg"><path d="M17.684 11.879a.968.968 0 01-.407-.09.91.91 0 01-.524-.818l-.017-2.188-3.482.007a1.442 1.442 0 01-1.442-1.442V4.565c0-.797.645-1.442 1.442-1.442l3.485-.004.017-2.188c0-.353.202-.665.525-.82a.946.946 0 011.045.165l5.052 5.015a.908.908 0 010 1.358l-5.052 4.978a.935.935 0 01-.642.252zm-.524-4.444c.494 0 .904.397.92.894v.014l.014 1.623 4.06-4.006-4.06-4.03-.013 1.62v.013a.926.926 0 01-.921.894h-.014l-3.889.004a.098.098 0 00-.097.097v2.783c0 .054.043.098.097.098l3.89-.007c.003.003.006.003.013.003zm-11.143 12.3a.928.928 0 01-.595-.212c-.017-.014-.034-.027-.047-.044L.326 14.471a.904.904 0 010-1.355l5.052-4.985c.017-.017.034-.03.05-.044a.952.952 0 01.999-.117.91.91 0 01.524.817l.017 2.184 3.482-.006c.797 0 1.442.645 1.442 1.442v2.783c0 .797-.645 1.442-1.442 1.442l-3.489.007-.016 2.188a.905.905 0 01-.525.82.99.99 0 01-.403.087zm-4.464-5.94l4.054 4.023.013-1.616v-.014a.924.924 0 01.935-.894l3.885-.003a.098.098 0 00.098-.098V12.41a.098.098 0 00-.098-.097l-3.885.006a.922.922 0 01-.935-.894v-.013l-.013-1.62-4.054 4.003z" fill="#5CB615" fill-rule="nonzero"/></svg>
